X: 451
T: Spring. (Frühling.)	 Op. 74
C: Fryderyk Chopin
%%abc-version 2.0
%%abcx-abcm2ps-target-version 5.9.1 (29 Sep 2008)
%%abc-creator hum2abc beta
%%abcx-conversion-date 2021/10/03 11:23:41
%%abc-edited-by Emilia Ziętek
%%abc-edited-by Wojciech Jakubiak-Danek
%%abcx-initial-encoding-date 2020-02-10
%%humdrum-veritas 2200995517
%%humdrum-veritas-data 2614439367
%%linebreak <none>
%%barnumbers 0
L: 1/8
M: 6/8
N: Derived from 074-1c-LW-002.krn
P: 17 | POLISH SONGS | BY | WITWICKI, ZALESKI, MICKIEWICZ, ETC, | FOR | A SOPRANO OR TENOR VOICE | WITH ACCOMPANIMENT FOR THE | Pianoforte
Q: "ANDANTINO. M.M. [quarter-dot] = 69."
V: 1 clef=treble
V: 2 clef=treble
V: 3 clef=treble
K: Bb
[V:1] G2dc2d | 
[V:2] G2dc2d | 
[V:3] [K:clef=treble]B,DG A,D^F & G,6 | 
[V:1] B3A3 | 
[V:2] B3A3 | 
[V:3] B,DG CD^F & G,6 | 
[V:1] G>A B c>d c | 
[V:2] G>AB c>dc | 
[V:3] B,DG A,D^F & G,6 | 
[V:1] B3A2z | 
[V:2] B3A2z | 
[V:3] B,DG CD^F & G,6 | 
[V:1] G2dc2d | 
[V:2] G2dc2d | 
[V:3] B,DG A,D^F & G,6 | 
[V:1] B3A3 | 
[V:2] B3A3 | 
[V:3] B,DG CD^F & G,6 | 
[V:1] G>A B c>d c | 
[V:2] G>AB c>dc | 
[V:3] B,DG A,D^F & G,6 | 
[V:1] B3A2z | 
[V:2] B3A3 | 
[V:3] B,DG F,EF & G,3F,3 | 
[V:1] B2f=e2f | 
[V:2] B2f=e2f | 
[V:3] DFB CFA & B,6 | 
[V:1] d3c3 | 
[V:2] d3c3 | 
[V:3] DFB EFA & B,6 | 
[V:1] B>c d e>f e | 
[V:2] B>cd e>fe | 
[V:3] DFB CFA & B,6 | 
[V:1] d3c2z | 
[V:2] d3c3 | 
[V:3] DFB EFA & B,6 | 
[V:1] B2f=e2f | 
[V:2] B2f=e2f | 
[V:3] DFB CFA & B,6 | 
[V:1] d3c3 | 
[V:2] d3c3 | 
[V:3] DFB EFA & B,6 | 
[V:1] B>c d e>f e | 
[V:2] B>cd e>fe | 
[V:3] DFB CFA & B,6 | 
[V:1] d3-d2z | 
[V:2] d z z!accent!d3- | 
[V:3] DFB CD^F & B,3A,3 | 
[V:1] d z d c z d | 
[V:2] d2dc2d | 
[V:3] B,DG A,D^F & G,6 | 
[V:1] B3A3 | 
[V:2] B3A3 | 
[V:3] B,DG CD^F & G,6 | 
[V:1] G>A B c>d c | 
[V:2] G>AB c>dc | 
[V:3] B,DG A,D^F & G,6 | 
[V:1] B3A3 | 
[V:2] B3A3 | 
[V:3] B,DG CD^F & G,6 | 
[V:1] G z d c z d | 
[V:2] G2dc2d | 
[V:3] B,DG A,D^F & G,6 | 
[V:1] B3A3 | 
[V:2] B3A3 | 
[V:3] B,DG CD^F & G,6 | 
[V:1] G>A B c>d c | 
[V:2] G>AB c>dc | 
[V:3] B,DG A,D^F & G,6 | 
[V:1] B3A3 | 
[V:2] B3!accent!A3 | 
[V:3] B,DG F,EF & G,3F,3 | 
[V:1] B z f =e z f | 
[V:2] B2f=e2f | 
[V:3] DFB CFA & B,6 | 
[V:1] d3c3 | 
[V:2] d3c3 | 
[V:3] DFB EFA & B,6 | 
[V:1] B>c d e>f e | 
[V:2] B>cd e>fe | 
[V:3] DFB CFA & B,6 | 
[V:1] d3c3 | 
[V:2] d3c3 | 
[V:3] DFB EFA & B,6 | 
[V:1] B z f =e z f | 
[V:2] B2f=e2f | 
[V:3] DFB CFA & B,6 | 
[V:1] d3c3 | 
[V:2] d3c3 | 
[V:3] DFB EFA & B,6 | 
[V:1] B>c d e>f e | 
[V:2] B>cd e>fe | 
[V:3] DFB CFA & B,6 | 
[V:1] d3-d2z | 
[V:2] d z z!accent!d3- | 
[V:3] DFB CD^F & B,3A,3 | 
[V:1] d2dc2d | 
[V:2] d2dc2d | 
[V:3] B,DG A,D^F & G,6 | 
[V:1] B3A3 | 
[V:2] B3A3 | 
[V:3] B,DG CD^F & G,6 | 
[V:1] G>A B c>d c | 
[V:2] G>AB c>dc | 
[V:3] B,DG A,D^F & G,6 | 
[V:1] B3A2z | 
[V:2] B3A2z | 
[V:3] B,DG CD^F & G,6 | 
[V:1] G2dc2d | 
[V:2] G2dc2d | 
[V:3] B,DG A,D^F & G,6 | 
[V:1] B3A3 | 
[V:2] B3A3 | 
[V:3] B,DG CD^F & G,6 | 
[V:1] G>A B c>d c | 
[V:2] G>AB c>dc | 
[V:3] B,DG A,D^F & G,6 | 
[V:1] B3A2z | 
[V:2] B3A3 | 
[V:3] B,DG F,EF & G,3F,3 | 
[V:1] B z f =e z f | 
[V:2] B2f=e2f | 
[V:3] DFB CFA & B,6 | 
[V:1] d3c3 | 
[V:2] d3c3 | 
[V:3] DFB EFA & B,6 | 
[V:1] B>c d e>f e | 
[V:2] B>cd e>fe | 
[V:3] DFB CFA & B,6 | 
[V:1] d3c2z | 
[V:2] d3c3 | 
[V:3] DFB EFA & B,6 | 
[V:1] B z f =e z f | 
[V:2] B2f=e2f | 
[V:3] DFB CFA & B,6 | 
[V:1] d3c2z | 
[V:2] d3c2z | 
[V:3] DFB EFA & B,6 | 
[V:1] B>c d e>f e | 
[V:2] B>cd e>fe | 
[V:3] DFB CFA & B,6 | 
[V:1] d3-d2z | 
[V:2] d z z!accent!d3- | 
[V:3] DFB CD^F & B,3A,3 | 
[V:1] d z d c z d | 
[V:2] d2dc2d | 
[V:3] B,DG A,D^F & G,6 | 
[V:1] B3A3 | 
[V:2] B3A3 | 
[V:3] B,DG CD^F & G,6 | 
[V:1] G>A B c>d c | 
[V:2] G>AB c>dc | 
[V:3] B,DG A,D^F & G,6 | 
[V:1] B3A3 | 
[V:2] B3A3 | 
[V:3] B,DG CD^F & G,6 | 
[V:1] G z d c z d | 
[V:2] G2dc2d | 
[V:3] B,DG A,D^F & G,6 | 
[V:1] B3A3 | 
[V:2] B3A3 | 
[V:3] B,DG CD^F & G,6 | 
[V:1] G>A B c z d | 
[V:2] G>ABc2d | 
[V:3] B,DG A,D^F & G,6 | 
[V:1] G3g2z |]  
[V:2] G3g2z |]  
[V:3] [D6B,6G,6] |]
